X:1
T:Title
%%score { 1 | 2 }
L:1/8
M:6/4
K:Ab
V:1 treble nm="Grand Piano"
V:2 bass 
V:1
 z6 z4[Q:1/4=117] [CE]2 | [CE]2 [CF]2 [CG]2 [CA]2 [DB]2 [=D_c]2 | [Ec]2 [CE]3 [DF] [CE]4 [CA]2 | %3
 [DA]2 [DG]2 [DF]2 G2 A2 B2 | [DB]2 [CA]3 [DB] [Ec]4 [CE]2 | %5
 [CE]2 [CF]2 [CG]2 [CA]2 [DB]2 [=D_c]2 | c2 d3 c [DB]4 F2 | A2 G2 F2 E2 A2 c2 | %8
[M:5/4] c2 B3 [=Dc] B4 |[M:1/4] E2 |[M:6/4] [Ec]2 [Ec]3 [=D_c] [E=c]4 E2 | B2 B3 =A B4 E2 | %12
[M:13/8] [EA]2 [EB]2 [Ec]2 [_Ge]2 [Fd]3 [DF]2[Q:1/4=115][Q:1/4=113][Q:1/4=112][Q:1/4=110][Q:1/4=108][Q:1/4=106][Q:1/4=104][Q:1/4=102][Q:1/4=101][Q:1/4=99][Q:1/4=97][Q:1/4=95][Q:1/4=93][Q:1/4=91][Q:1/4=90] | %13
[M:5/4] c2 B3 E [CA]4 |] %14
V:2
 z6 z4 [A,,A,]2 | [A,,A,]2 [A,,A,]2 [A,,E,]2 [A,,E,]2 [A,,E,]2 [A,,A,]2 | %2
 [A,,A,]2 [A,,A,]3 [A,,A,] [A,,A,]4 [A,,E,]2 | %3
 [B,,E,]2 [B,,E,]2 [B,,E,]2 [E,D]2 [E,F,D]2 [E,G,D]2 | %4
 [A,,A,]2 [A,,E,]3 [A,,E,] [A,,A,]4 [A,,A,]2 | %5
 [A,,A,]2 [A,,A,]2 [A,,E,]2 [A,,E,]2 [A,,E,]2 [A,,A,]2 | %6
 [A,E]2 [F,=A,F]3 [F,A,E] [B,,F,]4 [D,F,D]2 | %7
 [=D,F,_C]2 [D,G,C]2 [D,A,C]2 [E,A,=C]2 [E,A,C]2 [E,A,E]2 | %8
[M:5/4] [F,A,=D]2 [F,A,D]3 [B,,A,] [E,G,_D]4 |[M:1/4] E,2 | %10
[M:6/4] [A,,A,]2 [A,,A,]3 [A,,A,] [A,,A,]4 E,2 | [E,G,D]2 [E,G,D]3 [E,_G,C] [E,=G,D]4 E,2 | %12
[M:13/8] [C,E,]2 [B,,G,]2 [A,,A,]2 [=A,,C]2 [B,,B,]3 [B,,B,]2 | %13
[M:5/4] [E,A,E]2 [E,G,D]3 [E,G,D] [A,,E,]4 |] %14

